src/assets/images/savings.svg

<svg width="16" height="18" viewBox="0 0 16 18" fill="none" xmlns="http://www.w3.org/2000/svg">
<path d="M15.6002 2.25C15.6002 1.52193 15.0002 0.934328 14.1059 0.534069C13.2049 0.130866 11.9713 -0.1 10.6248 -0.1C9.27857 -0.1 8.04511 0.130867 7.14429 0.534071C6.25004 0.93433 5.65 1.52193 5.65 2.25C5.65 2.97807 6.25004 3.56567 7.14429 3.96593C8.04511 4.36913 9.27857 4.6 10.6248 4.6C11.9713 4.6 13.2049 4.36913 14.1059 3.96593C15.0002 3.56567 15.6002 2.97807 15.6002 2.25ZM6.60024 2.25C6.60024 2.10802 6.68874 1.94724 6.88614 1.78025C7.08165 1.61485 7.37054 1.45542 7.7363 1.31648C8.46698 1.03894 9.48577 0.85024 10.6248 0.85024C11.7637 0.85024 12.7827 1.03894 13.5136 1.31649C13.8794 1.45543 14.1684 1.61487 14.364 1.78027C14.5615 1.94727 14.65 2.10804 14.65 2.25C14.65 2.39196 14.5615 2.55273 14.364 2.71974C14.1684 2.88513 13.8794 3.04457 13.5136 3.18351C12.7827 3.46106 11.7637 3.64976 10.6248 3.64976C9.48577 3.64976 8.46698 3.46106 7.7363 3.18351C7.37054 3.04457 7.08165 2.88514 6.88614 2.71975C6.68874 2.55275 6.60024 2.39198 6.60024 2.25Z" fill="#FF3366" stroke="#FF3366" stroke-width="0.2"/>
<path d="M15.6002 2.25V2.15H15.5002H14.75H14.65V2.25V4.5C14.65 4.64197 14.5615 4.80274 14.364 4.96974C14.1684 5.13514 13.8794 5.29458 13.5136 5.43352C12.7827 5.71106 11.7637 5.89976 10.6248 5.89976C9.48577 5.89976 8.46698 5.71106 7.7363 5.43351C7.37054 5.29457 7.08165 5.13514 6.88614 4.96975C6.68874 4.80275 6.60024 4.64198 6.60024 4.5V2.25V2.15H6.50024H5.75H5.65V2.25V4.5C5.65 5.22807 6.25004 5.81567 7.14429 6.21593C8.04511 6.61913 9.27857 6.85 10.6248 6.85C11.9713 6.85 13.2049 6.61913 14.1059 6.21593C15.0002 5.81567 15.6002 5.22807 15.6002 4.5V2.25Z" fill="#FF3366" stroke="#FF3366" stroke-width="0.2"/>
<path d="M5.65 6.75702V6.83833L5.7296 6.85491L5.72961 6.85491L5.73796 6.85665L5.74649 6.85695C6.00336 6.866 6.2532 6.8848 6.49323 6.91193L6.62051 6.92632L6.60358 6.79935C6.60133 6.78244 6.60024 6.76647 6.60024 6.74998V4.49998V4.39998H6.50024H5.75H5.65V4.49998V6.74998V6.75702ZM9.50147 8.94541L9.50453 9.04459C9.86508 9.08079 10.2404 9.09994 10.6248 9.09994C11.9713 9.09994 13.2049 8.86907 14.1059 8.46587C15.0002 8.06561 15.6002 7.47801 15.6002 6.74994V4.49994V4.39994H15.5002H14.75H14.65V4.49994V6.74994C14.65 6.89191 14.5615 7.05268 14.364 7.21968C14.1684 7.38508 13.8794 7.54452 13.5136 7.68345C12.7827 7.961 11.7637 8.1497 10.6248 8.1497C10.2361 8.1497 9.8616 8.12811 9.50685 8.08776L9.37949 8.07328L9.39643 8.20034C9.39867 8.21716 9.39977 8.23384 9.39977 8.2497C9.39977 8.31385 9.40544 8.56946 9.41456 8.9475L9.50147 8.94541Z" fill="#FF3366" stroke="#FF3366" stroke-width="0.2"/>
<path d="M9.4708 11.1525L9.30938 11.2763L9.56264 11.3004C9.90546 11.3331 10.2609 11.3501 10.6247 11.3501C11.9712 11.3501 13.2049 11.1192 14.1058 10.716C15.0001 10.3158 15.6002 9.72816 15.6002 9.00009V6.75009V6.65009H15.5002H14.7499H14.6499V6.75009V9.00009C14.6499 9.14206 14.5614 9.30283 14.3639 9.46984C14.1684 9.63523 13.8794 9.79467 13.5135 9.93361C12.7827 10.2112 11.7637 10.3999 10.6247 10.3999C10.257 10.3999 9.90052 10.3803 9.56311 10.3442L9.44952 10.332L9.45248 10.4462C9.45444 10.5218 9.4564 10.5983 9.45838 10.6757C9.46238 10.8316 9.46646 10.9909 9.4708 11.1525ZM6.48926 6.91133L6.60024 6.92359V6.81194V6.75006V6.65006H6.50024H5.75H5.65V6.75006V6.75709V6.85361L5.74646 6.85703C6.0019 6.86608 6.24972 6.88487 6.48926 6.91133Z" fill="#FF3366" stroke="#FF3366" stroke-width="0.2"/>
<path d="M10.35 9C10.35 8.27193 9.74995 7.68433 8.85571 7.28407C7.95489 6.88087 6.72142 6.65 5.37524 6.65C4.02869 6.65 2.79505 6.88087 1.89414 7.28407C0.999803 7.68433 0.399756 8.27193 0.399756 9C0.399756 9.72807 0.999803 10.3157 1.89414 10.7159C2.79505 11.1191 4.02869 11.35 5.37524 11.35C6.72142 11.35 7.95489 11.1191 8.85571 10.7159C9.74995 10.3157 10.35 9.72807 10.35 9ZM1.35 9C1.35 8.85803 1.43852 8.69726 1.636 8.53026C1.83158 8.36486 2.12055 8.20542 2.48641 8.06648C3.21728 7.78894 4.23625 7.60024 5.37524 7.60024C6.51422 7.60024 7.53301 7.78894 8.26369 8.06649C8.62946 8.20543 8.91834 8.36486 9.11385 8.53025C9.31126 8.69725 9.39976 8.85802 9.39976 9C9.39976 9.14198 9.31126 9.30275 9.11385 9.46975C8.91834 9.63514 8.62946 9.79457 8.26369 9.93351C7.53301 10.2111 6.51422 10.3998 5.37524 10.3998C4.23625 10.3998 3.21728 10.2111 2.48641 9.93351C2.12055 9.79457 1.83158 9.63513 1.636 9.46974C1.43852 9.30273 1.35 9.14196 1.35 9Z" fill="#FF3366" stroke="#FF3366" stroke-width="0.2"/>
<path d="M10.35 9V8.9H10.25H9.49976H9.39976V9V11.25C9.39976 11.392 9.31126 11.5528 9.11385 11.7198C8.91834 11.8851 8.62946 12.0446 8.26369 12.1835C7.53301 12.4611 6.51422 12.6498 5.37524 12.6498C4.23625 12.6498 3.21728 12.4611 2.48641 12.1835C2.12055 12.0446 1.83158 11.8851 1.636 11.7197C1.43852 11.5527 1.35 11.392 1.35 11.25V9V8.9H1.25H0.499756H0.399756V9V11.25C0.399756 11.9781 0.999803 12.5657 1.89414 12.9659C2.79505 13.3691 4.02869 13.6 5.37524 13.6C6.72142 13.6 7.95489 13.3691 8.85571 12.9659C9.74995 12.5657 10.35 11.9781 10.35 11.25V9Z" fill="#FF3366" stroke="#FF3366" stroke-width="0.2"/>
<path d="M10.35 11.25V11.15H10.25H9.49976H9.39976V11.25V13.5C9.39976 13.642 9.31126 13.8028 9.11385 13.9698C8.91834 14.1351 8.62946 14.2946 8.26369 14.4335C7.53301 14.7111 6.51422 14.8998 5.37524 14.8998C4.23625 14.8998 3.21728 14.7111 2.48641 14.4335C2.12055 14.2946 1.83158 14.1351 1.636 13.9697C1.43852 13.8027 1.35 13.642 1.35 13.5V11.25V11.15H1.25H0.499756H0.399756V11.25V13.5C0.399756 14.2281 0.999803 14.8157 1.89414 15.2159C2.79505 15.6191 4.02869 15.85 5.37524 15.85C6.72142 15.85 7.95489 15.6191 8.85571 15.2159C9.74995 14.8157 10.35 14.2281 10.35 13.5V11.25Z" fill="#FF3366" stroke="#FF3366" stroke-width="0.2"/>
<path d="M10.35 13.5V13.4H10.25H9.49976H9.39976V13.5V15.75C9.39976 15.892 9.31126 16.0528 9.11385 16.2198C8.91834 16.3851 8.62946 16.5446 8.26369 16.6835C7.53301 16.9611 6.51422 17.1498 5.37524 17.1498C4.23625 17.1498 3.21728 16.9611 2.48641 16.6835C2.12055 16.5446 1.83158 16.3851 1.636 16.2197C1.43852 16.0527 1.35 15.892 1.35 15.75V13.5V13.4H1.25H0.499756H0.399756V13.5V15.75C0.399756 16.4781 0.999803 17.0657 1.89414 17.4659C2.79505 17.8691 4.02869 18.1 5.37524 18.1C6.72142 18.1 7.95489 17.8691 8.85571 17.4659C9.74995 17.0657 10.35 16.4781 10.35 15.75V13.5Z" fill="#FF3366" stroke="#FF3366" stroke-width="0.2"/>
<path d="M9.53952 13.4945L9.56261 13.5506L9.62306 13.556C9.94746 13.5851 10.2823 13.6 10.6248 13.6C11.9713 13.6 13.205 13.3692 14.1059 12.966C15.0002 12.5657 15.6003 11.9781 15.6003 11.25V9.00003V8.90003H15.5003H14.7501H14.6501V9.00003V11.25C14.6501 11.392 14.5615 11.5528 14.364 11.7198C14.1685 11.8852 13.8795 12.0446 13.5136 12.1835C12.7828 12.4611 11.7638 12.6498 10.6248 12.6498C10.278 12.6498 9.9424 12.6324 9.62225 12.6004L9.50957 12.5891L9.51233 12.7023C9.51648 12.8717 9.52093 13.0392 9.52528 13.203C9.52757 13.2894 9.52984 13.3748 9.53203 13.459L9.5325 13.4774L9.53952 13.4945L9.53952 13.4945Z" fill="#FF3366" stroke="#FF3366" stroke-width="0.2"/>
<path d="M9.59891 15.7459L9.62071 15.8065L9.68487 15.8117C9.98915 15.8365 10.3041 15.85 10.6246 15.85C11.9712 15.85 13.2048 15.6191 14.1057 15.2159C15.0001 14.8157 15.6001 14.2281 15.6001 13.5V11.25V11.15H15.5001H14.7499H14.6499V11.25V13.5C14.6499 13.642 14.5614 13.8027 14.3639 13.9697C14.1683 14.1351 13.8793 14.2946 13.5135 14.4335C12.7826 14.7111 11.7636 14.8998 10.6246 14.8998C10.2994 14.8998 9.98403 14.8844 9.68201 14.8559L9.56957 14.8453L9.57264 14.9582C9.5778 15.1476 9.58212 15.3097 9.58552 15.4372C9.58906 15.5703 9.5916 15.6657 9.59304 15.7149L9.59351 15.7309L9.59891 15.7459L9.59891 15.7459Z" fill="#FF3366" stroke="#FF3366" stroke-width="0.2"/>
</svg>

<svg xmlns="http://www.w3.org/2000/svg" width="16" height="18" fill="none"><path fill="#F36" stroke="#F36" stroke-width=".2" d="M15.6 2.25c0-.728-.6-1.316-1.494-1.716C13.205.131 11.97-.1 10.625-.1s-2.58.23-3.48.634c-.895.4-1.495.988-1.495 1.716s.6 1.316 1.494 1.716c.901.403 2.135.634 3.48.634 1.347 0 2.58-.23 3.482-.634.894-.4 1.494-.988 1.494-1.716Zm-9 0c0-.142.089-.303.286-.47.196-.165.485-.325.85-.464.731-.277 1.75-.466 2.889-.466 1.139 0 2.158.189 2.889.466.365.14.654.299.85.464.197.167.286.328.286.47 0 .142-.088.303-.286.47-.196.165-.485.325-.85.464-.731.277-1.75.466-2.89.466-1.138 0-2.157-.189-2.888-.466-.365-.14-.654-.299-.85-.464-.197-.167-.286-.328-.286-.47Z"/><path fill="#F36" stroke="#F36" stroke-width=".2" d="M15.6 2.25v-.1h-.95V4.5c0 .142-.088.303-.286.47-.196.165-.485.325-.85.464-.731.277-1.75.466-2.89.466-1.138 0-2.157-.189-2.888-.466-.365-.14-.654-.299-.85-.464-.197-.167-.286-.328-.286-.47V2.15h-.95V4.5c0 .728.6 1.316 1.494 1.716.901.403 2.135.634 3.48.634 1.347 0 2.58-.23 3.482-.634C15 5.816 15.6 5.228 15.6 4.5V2.25Z"/><path fill="#F36" stroke="#F36" stroke-width=".2" d="M5.65 6.757v.081l.08.017.008.002h.008a9.7 9.7 0 0 1 .747.055l.128.014-.017-.127A.369.369 0 0 1 6.6 6.75V4.4h-.95v2.357Zm3.851 2.188.004.1c.36.036.735.055 1.12.055 1.346 0 2.58-.23 3.48-.634.895-.4 1.495-.988 1.495-1.716V4.4h-.95v2.35c0 .142-.088.303-.286.47-.196.165-.485.325-.85.463-.731.278-1.75.467-2.89.467-.388 0-.762-.022-1.117-.062l-.128-.015.017.127a.376.376 0 0 1 .004.05c0 .064.005.32.015.697l.086-.002Z"/><path fill="#F36" stroke="#F36" stroke-width=".2" d="m9.47 11.152-.16.124.253.024c.342.033.698.05 1.062.05 1.346 0 2.58-.23 3.48-.634C15 10.316 15.6 9.728 15.6 9V6.65h-.95V9c0 .142-.089.303-.286.47-.196.165-.485.325-.85.464-.731.277-1.75.466-2.89.466-.367 0-.723-.02-1.06-.056l-.114-.012.002.114.006.23.013.476Zm-2.98-4.24.11.012V6.65h-.95v.204l.096.003c.256.01.504.028.743.054Z"/><path fill="#F36" stroke="#F36" stroke-width=".2" d="M10.35 9c0-.728-.6-1.316-1.494-1.716-.901-.403-2.135-.634-3.48-.634-1.347 0-2.581.23-3.482.634C1 7.684.4 8.272.4 9s.6 1.316 1.494 1.716c.901.403 2.135.634 3.481.634s2.58-.23 3.48-.634c.895-.4 1.495-.988 1.495-1.716Zm-9 0c0-.142.089-.303.286-.47.196-.165.485-.325.85-.464.731-.277 1.75-.466 2.89-.466 1.138 0 2.157.189 2.888.466.365.14.654.299.85.464.197.167.286.328.286.47 0 .142-.089.303-.286.47-.196.165-.485.325-.85.464-.731.277-1.75.466-2.889.466-1.139 0-2.158-.189-2.889-.466-.365-.14-.654-.299-.85-.464-.197-.167-.286-.328-.286-.47Z"/><path fill="#F36" stroke="#F36" stroke-width=".2" d="M10.35 9v-.1H9.4v2.35c0 .142-.089.303-.286.47-.196.165-.485.325-.85.463-.731.278-1.75.467-2.889.467-1.139 0-2.158-.189-2.889-.466-.365-.14-.654-.299-.85-.464-.197-.167-.286-.328-.286-.47V8.9H.4v2.35c0 .728.6 1.316 1.494 1.716.901.403 2.135.634 3.481.634s2.58-.23 3.48-.634c.895-.4 1.495-.988 1.495-1.716V9Z"/><path fill="#F36" stroke="#F36" stroke-width=".2" d="M10.35 11.25v-.1H9.4v2.35c0 .142-.089.303-.286.47-.196.165-.485.325-.85.463-.731.278-1.75.467-2.889.467-1.139 0-2.158-.189-2.889-.466-.365-.14-.654-.299-.85-.464-.197-.167-.286-.328-.286-.47v-2.35H.4v2.35c0 .728.6 1.316 1.494 1.716.901.403 2.135.634 3.481.634s2.58-.23 3.48-.634c.895-.4 1.495-.988 1.495-1.716v-2.25Z"/><path fill="#F36" stroke="#F36" stroke-width=".2" d="M10.35 13.5v-.1H9.4v2.35c0 .142-.089.303-.286.47-.196.165-.485.325-.85.463-.731.278-1.75.467-2.889.467-1.139 0-2.158-.189-2.889-.466-.365-.14-.654-.299-.85-.464-.197-.167-.286-.328-.286-.47V13.4H.4v2.35c0 .728.6 1.316 1.494 1.716.901.403 2.135.634 3.481.634s2.58-.23 3.48-.634c.895-.4 1.495-.988 1.495-1.716V13.5Z"/><path fill="#F36" stroke="#F36" stroke-width=".2" d="m9.54 13.495.023.056.06.005c.324.03.66.044 1.002.044 1.346 0 2.58-.23 3.48-.634.895-.4 1.495-.988 1.495-1.716V8.9h-.95v2.35c0 .142-.088.303-.286.47-.196.165-.485.325-.85.463-.731.278-1.75.467-2.89.467-.346 0-.682-.018-1.002-.05l-.112-.01.002.112.013.501.007.256v.018l.008.018Z"/><path fill="#F36" stroke="#F36" stroke-width=".2" d="m9.599 15.746.022.06.064.006c.304.024.62.038.94.038 1.346 0 2.58-.23 3.48-.634.895-.4 1.495-.988 1.495-1.716v-2.35h-.95v2.35c0 .142-.089.303-.286.47-.196.165-.485.325-.85.463-.731.278-1.75.467-2.89.467-.325 0-.64-.016-.942-.044l-.112-.01.003.112.013.48.007.277v.016l.006.015Z"/></svg>
